svgs/sharp-regular/baht-sign.svg

<svg xmlns="http://www.w3.org/2000/svg" viewBox="0 0 320 512"><!--! Font Awesome Pro 6.6.0 by @fontawesome - https://fontawesome.com License - https://fontawesome.com/license (Commercial License) Copyright 2024 Fonticons, Inc. --><path d="M160 0L112 0l0 64L48 64 0 64l0 48L0 232l0 48L0 400l0 48 48 0 64 0 0 64 48 0 0-64 52 0c59.6 0 108-48.4 108-108c0-42.1-24.1-78.5-59.2-96.4C277.7 224.6 288 199.5 288 172c0-59.6-48.4-108-108-108l-20 0 0-64zM112 112l0 120-64 0 0-120 64 0zm48 120l0-120 20 0c33.1 0 60 26.9 60 60s-26.9 60-60 60l-20 0zm-48 48l0 120-64 0 0-120 64 0zm48 120l0-120 20 0 32 0c33.1 0 60 26.9 60 60s-26.9 60-60 60l-52 0z"/></svg>

<svg xmlns="http://www.w3.org/2000/svg" viewBox="0 0 320 512"><!--! Font Awesome Pro 6.4.2 by @fontawesome - https://fontawesome.com License - https://fontawesome.com/license (Commercial License) Copyright 2023 Fonticons, Inc. --><path d="M160 0H112V64H48 0v48V232v48V400v48H48h64v64h48V448h52c59.6 0 108-48.4 108-108c0-42.1-24.1-78.5-59.2-96.4C277.7 224.6 288 199.5 288 172c0-59.6-48.4-108-108-108H160V0zM112 112V232H48V112h64zm48 120V112h20c33.1 0 60 26.9 60 60s-26.9 60-60 60H160zm-48 48V400H48V280h64zm48 120V280h20 32c33.1 0 60 26.9 60 60s-26.9 60-60 60H160z"/></svg>
